X:1
T:Title
%%score 1 2
L:1/8
Q:1/4=60
M:6/8
K:Eb
V:1 treble nm="Strings 1, Soprano"
V:2 bass nm="Strings 1, Bass"
V:1
 z3 z2 E | [EG]2 [EG] [EA][EG]E | [EB]2 [EB] [EB]2 [B,E] | [B,D][B,D][B,E] [DF]2 [EG] | %4
w: 1.~It~|may~ be~ lit tle~ that~|I~ can~ do,~ Nor~|may~ I~ have~ much~ to~|
 [DF]3- [DF]2 [B,E] | [EG]2 [EG] [EA][EG]E | [EB][EB][DB] [EB]2 [Ec] | [Fd][Fd]F [Ec]2 [EF] | %8
w: say,~ * But~|in~ that~ lit tle~ I~|mean~ to~ be~ true,~ And~|do~ what~ I~ can~ to|
 [DB]3- [DB]2 [DB]/[DB]/ | [DB][DA][DA] [B,C][B,D][B,E] | [EG]2 [EG] [EG]2 [FG]/[FG]/ | %11
w: day.~ * * *|||
 [Ec][Ec][EG] [EA]2 E | [EG]3- [EG]2 [GB]/[GB]/ | [Ge]2 [Ge] [Ge]2 E/E/ | %14
w: |||
 [EB][EB][DB] [EB]2 [B,E]/[B,E]/ | [B,D][B,E][DF] [EG]2 [B,F] | [B,E]6 |] %17
w: |||
V:2
 z3 z2 [E,G,] | [E,B,]2 [E,B,] [E,C][E,B,][E,G,] | [E,G,]2 [E,G,] [E,G,]2 [E,G,] | %3
 F,F,[E,G,] [B,,A,]2 [B,,B,] | [B,,A,]3- [B,,A,]2 [E,G,] | [E,B,]2 [E,B,] [E,C][E,B,][E,G,] | %6
 [E,G,][E,G,][F,A,] [G,B,]2 [G,B,] | [F,B,][F,B,][F,B,] [F,=A,]2 [F,A,] | %8
 [B,,B,]3- [B,,B,]2 [B,,B,]/[B,,B,]/ | [B,,B,][B,,B,][B,,B,] [B,,A,][B,,A,][E,G,] | %10
 [E,B,]2 [E,B,] [E,B,]2 [D,=B,]/[D,B,]/ | [C,C][C,C][C,C] [A,,C]2 [A,,=B,] | %12
 [E,B,]3- [E,B,]2 [E,B,]/[E,B,]/ | [E,B,]2 [E,B,] [E,B,]2 [E,G,]/[E,G,]/ | %14
 [E,G,][E,G,][F,A,] [G,B,]2 [E,G,]/[E,G,]/ | [B,,F,][B,,G,][B,,A,] [B,,B,]2 [B,,A,] | [E,G,]6 |] %17

